X:120
T: Die Geburt im Grabe
N: Q0109A
O: Mitteleuropa, Deutschland (DDR) , Brandenburg, Luebben, Schoenwalde
R: Ballade, Schein - Tod, Geburt, Grab, Auferstehen; Zeitungs - Lied
M: 6/8
L: 1/16
K: F
FA | c4c2A4F2 | F2E4z4
GG | B4G2F2c2B2 | B2A4z4
F2 | d4d2d4d2 | A2c4z4
f2 | c2A2c2B2A2G2 | G2F4z4

@@@ Tune index: 1413
